X:20
T:Trip To Pakistan, The
C:Nial Kenny
M:4/4
L:1/8
R:reel
D:Old blind dogs
D:Irish Music by Sualtam
D:Tri by Far From Home
D:Wintering Out by Simon Bradley And Luke Plumb
K:BMIN %Transposed from EMIN
|:BdfB d3 f|e3 f edcd|BdfB d3 f|edcd B4:|
|:Bdfd g3 e|f3 a edcd|Bdfd g3 e|fedf e4:|
|:cdfc dfdc|BcdB cdcB|AceA ceAc|edcd B4:|
K:Emin
|:EGBE G3 B|A3 B AGFG|EGBE G3 B|AGFG E4:|
|:EGBG c3 A|B3 d AGFG|EGBG c3 A|BAGB A4:|
|:FGBF GBGF|EFGE FGFE|DFAD FADF|AGFG E4:|
